X:1
T:BWV 0799
T:Sinfonia 13
T:Johann Sebastian Bach
%%score { ( 1 3 ) | 2 }
L:1/8
Q:1/4=96
M:3/8
K:C
V:1 treble nm="Harp"
V:3 treble 
V:2 bass 
V:1
"^Andante" A2 B | c2 d | cc/4B/4c/4B/4c/4B/4c/4B/4 | A/B/c/d/e/^f/ | g/^f/g/a/b/c'/ | %5
 b/a/g/^f/e/^d/ | e/^f/ ^d>e | e2 g- | g/_b/a/g/f/e/ | f3- | f/f/e/d/c/B/ | c/d/c/B/A/^G/ | A3- | %13
 A>Bc/d/ | e/f/e/d/c/B/ | c3 | B3 | A/G/A/B/c/d/ | e/f/g/a/b/c'/ | f/a/g/f/e/d/ | ecd | e2 f | %22
 e d2 | c/G/A/B/c/d/ | e2 f | g2 a | g f2 | e3- | ede | f2 g | f e2 | d/A/B/^c/d/e/ | f2 g | %33
 a2 _b | aa/4g/4a/4g/4a/4g/4a/4g/4 | f/a/4g/4f/a/e/a/ | f3- | f/g/4f/4e/g/d/g/ | e3- | %39
 e/d/4c/4B/d/A/d/ | B/B/d/g^f/ | g/d/B/G^F/ | G/D/E/D/E/^F/ | G/d/c/B/c/d/ | Bcd | GAB | c2 B- | %47
 B/AA^G/ | A/c/e/a^g/ | a/e/c/A^G/ | A/c/e/a/^g/b/ | eAB | c2 d | e2 f | e d2 | c e2- | e d2- | %57
 d/e/4d/4c/e/B/e/ | A/d/4c/4B/d/A/d/ | ^GAB | c2 d | c B2- | Ba^g | !fermata!a3 |] %64
V:2
 A,,A,^G, | A,E,F, | D,E,E,, | A,,A,/B,/C/A,/ | EE,^D | EB,C | A,B,B,, | E,2 z | z3 | z3 | z3 | %11
 z3 | A,,2 B,, | C,2 D, | C, B,,2 | A,,/B,,/C,/D,/E,/^F,/ | G,/A,/B,/C/D/E/ | F3 | E3 | D3 | %20
 C,/E,/G,/CB,/ | C/G,/E,/C,B,,/ | C,/E,/G,/C/B,/C/ | C,CB, |[K:treble] A,/A/G/F/E/D/ | C/E/G/cB/ | %26
 c/C/c/B/A/B/ | cC^C | D/G/F/E/D/^C/ |[K:bass] D/E/D/=C/_B,/A,/ | G,/F,/G,/_B,/A,/G,/ | %31
 F,/G,/F,/E,/D,/^C,/ | D,/F,/A,/D^C/ | D/A,/F,/D,^C,/ | D,/F,/A,/D/^C/D/ | D,F,A, | %36
 D,/F,/4E,/4D,/F,/C,/F,/ | B,,C,G, | C/E/4D/4C/E/B,/E/ | A,B,D | G,G,,A,, | B,,2 C, | B,, A,,2 | %43
 G,,G,^F, | G,2 F, | E,2 D, | C,/E,/^F,/E,/F,/^G,/ | A,/E,/D,/C,/D,/E,/ | C,2 D, | A,=G,F, | %50
 E,2 D, | C,2 B,, | A,,2 B,, | C,2 D, | C, B,,2 | A,,C,A,, | D,B,,A,, | ^G,,A,,=G,, | ^F,,=F,,F, | %59
 E,3- | E,/E,/4D,/4C,/E,/B,,/E,/ | A,,/B,/4A,/4^G,/B,/E,/G,/ | C,D,E, | !fermata!A,,3 |] %64
V:3
 x3 | x3 | x3 | x3 | E2 ^F | G2 A | GG/4^F/4G/4F/4G/4F/4G/4F/4 | E/^F/G/A/B/^c/ | d3- | %9
 d/e/d/c/B/A/ | ^G3 | A/F/E/D/C/B,/ | C/B,/C/D/E/F/ | E/D/C/[I:staff +1]B,/A,/^G,/ | %14
 A,/B,/A,/4^G,/4A,/4G,/4A,/4G,/4A,/4G,/4 | A,[I:staff -1]EA- | ADG- | GF/G/A/B/ | cE/F/G/A/ | BAB | %20
 cEF | G2 A | G F2 | E z z | z cd | e2 f | e d2- | d/d/c/_B/A/G/ | F A2- | AA^c | d2 ^c | d z z | %32
 z de | f2 g | f e2- | ed^c | d/d/4c/4B/d/A/d/ | GcB | c/c/4B/4A/c/G/c/ | ^FGF | G2 z | %41
 z[I:staff +1] G,A, | B,2[I:staff -1] C | B,[I:staff +1] A,2- | A,/G,/A,/G,/A,/B,/ | %45
[I:staff -1] C/G/F/E/F/G/ | E D2 | CB,B, |[I:staff +1] E,A,B, | C2 D | C B,2- | %51
 B,/E,/^F,/^G,/A,/G,/ | A,/[I:staff -1]C/E/A^G/ | A/E/[I:staff +1]C/A,^G,/ | %54
 A,/C/[I:staff -1]E/A/^G/B/ |[I:staff +1] A,/[I:staff -1]c/4B/4A/c/G/c/ | ^F/B/4A/4^G/B/F/B/ | %57
 E3- | E D2- | D/E/4D/4C/E/B,/E/ |[I:staff +1] A,[I:staff -1]A^G | A D2- | D/e/4d/4c/e/B/e/ | %63
 ^c3 |] %64

